X:380
T:Wind that Shakes the Barley
Z: id:dc-reel-352
M:C
L:1/8
K:D Major
B|A3B AFED|B3A BcdB|A3B AFED|gfed Bcd:|!
e|f3d g3e|f3d Bcde|f3d g2fg|afed Bcde|!
f3d g3e|f3d Bcde|fafd gbge|afed Bcd|]!